src/TT_QuadFaceTools/Icons/Select_24.svg

<?xml version="1.0" encoding="UTF-8" standalone="no"?>
<svg
   xmlns:dc="http://purl.org/dc/elements/1.1/"
   xmlns:cc="http://creativecommons.org/ns#"
   xmlns:rdf="http://www.w3.org/1999/02/22-rdf-syntax-ns#"
   xmlns:svg="http://www.w3.org/2000/svg"
   xmlns="http://www.w3.org/2000/svg"
   xmlns:sodipodi="http://sodipodi.sourceforge.net/DTD/sodipodi-0.dtd"
   xmlns:inkscape="http://www.inkscape.org/namespaces/inkscape"
   inkscape:version="1.0 (4035a4fb49, 2020-05-01)"
   sodipodi:docname="Select_24.svg"
   id="svg5016"
   style="fill-rule:evenodd;clip-rule:evenodd;stroke-miterlimit:10;"
   xml:space="preserve"
   version="1.1"
   viewBox="0 0 32 32"
   height="100%"
   width="100%"><metadata
   id="metadata5022"><rdf:RDF><cc:Work
       rdf:about=""><dc:format>image/svg+xml</dc:format><dc:type
         rdf:resource="http://purl.org/dc/dcmitype/StillImage" /></cc:Work></rdf:RDF></metadata><defs
   id="defs5020">
        
    
            
            
        
                
                
                
                
                
                
            
                    
                
                    
                
                    
                
                    
                
                    
                </defs><sodipodi:namedview
   inkscape:current-layer="svg5016"
   inkscape:window-maximized="1"
   inkscape:window-y="-8"
   inkscape:window-x="-8"
   inkscape:cy="19.958763"
   inkscape:cx="16"
   inkscape:zoom="30.3125"
   showgrid="true"
   id="namedview5018"
   inkscape:window-height="1137"
   inkscape:window-width="1920"
   inkscape:pageshadow="2"
   inkscape:pageopacity="0"
   guidetolerance="10"
   gridtolerance="10"
   objecttolerance="10"
   borderopacity="1"
   bordercolor="#666666"
   pagecolor="#ffffff"><inkscape:grid
     id="grid5585"
     type="xygrid" /></sodipodi:namedview>
    <g
   id="g4986">
                <g
   id="g4980"
   transform="matrix(1.8,0,0,1.6798,-256.7,-430.428)">
                    <path
   id="path4978"
   d="M 150.747,267.377 149,269 v -8 l 5,6 -2.324,0.006 1.137,3.183 -0.942,0.336 z" />
                </g>
                <g
   id="g4984"
   transform="matrix(1.8,0,0,1.6798,-256.7,-430.428)">
                    <path
   id="path4982"
   style="fill:none;stroke:#ffffff;stroke-width:0.57px"
   d="m 150.642,267.824 1.083,3.031 1.41,-0.503 -1.101,-3.083 2.515,-0.006 -5.795,-6.955 v 9.27 z" />
                </g>
            </g><rect
   id="rect4988"
   style="fill:#91c5ff"
   height="4"
   width="4"
   y="18"
   x="23" /><rect
   id="rect4992"
   style="fill:#91c5ff"
   height="4"
   width="4"
   y="23"
   x="23" /><g
   transform="translate(0,-38)"
   id="g4998">
                    <rect
   x="18"
   y="61"
   width="4"
   height="4"
   style="fill:#91c5ff"
   id="rect4996" />
                </g><rect
   id="rect5000"
   style="fill:none;stroke:#1985ff;stroke-width:1px"
   height="5"
   width="5"
   y="17.5"
   x="22.5" /><rect
   id="rect5004"
   style="fill:none;stroke:#1985ff;stroke-width:1px"
   height="5"
   width="5"
   y="22.5"
   x="22.5" /><rect
   id="rect5008"
   style="fill:none;stroke:#1985ff;stroke-width:1px"
   height="5"
   width="5"
   y="22.5"
   x="17.5" />
</svg>

<?xml version="1.0" encoding="UTF-8" standalone="no"?>
<!DOCTYPE svg PUBLIC "-//W3C//DTD SVG 1.1//EN" "http://www.w3.org/Graphics/SVG/1.1/DTD/svg11.dtd">
<svg width="100%" height="100%" viewBox="0 0 32 32" version="1.1" xmlns="http://www.w3.org/2000/svg" xmlns:xlink="http://www.w3.org/1999/xlink" xml:space="preserve" xmlns:serif="http://www.serif.com/" style="fill-rule:evenodd;clip-rule:evenodd;stroke-miterlimit:10;">
    <g>
        <g id="Select_24">
            <g>
                <g transform="matrix(1.8,0,0,1.6798,-256.7,-430.428)">
                    <path d="M150.747,267.377L149,269L149,261L154,267L151.676,267.006L152.813,270.189L151.871,270.525L150.747,267.377Z"/>
                </g>
                <g transform="matrix(1.8,0,0,1.6798,-256.7,-430.428)">
                    <path d="M150.642,267.824L151.725,270.855L153.135,270.352L152.034,267.269L154.549,267.263L148.754,260.308L148.754,269.578L150.642,267.824Z" style="fill:none;stroke:white;stroke-width:0.57px;"/>
                </g>
            </g>
            <g id="bluebox_l">
                <g transform="matrix(1,0,0,1,0,-38)">
                    <rect x="23" y="56" width="4" height="4" style="fill:rgb(145,197,255);"/>
                </g>
                <g transform="matrix(1,0,0,1,0,-38)">
                    <rect x="23" y="61" width="4" height="4" style="fill:rgb(145,197,255);"/>
                </g>
                <g transform="matrix(1,0,0,1,0,-38)">
                    <rect x="18" y="61" width="4" height="4" style="fill:rgb(145,197,255);"/>
                </g>
                <g transform="matrix(1.25,0,0,1.25,-6.25,-52.5)">
                    <rect x="23" y="56" width="4" height="4" style="fill:none;stroke:rgb(25,133,255);stroke-width:0.8px;"/>
                </g>
                <g transform="matrix(1.25,0,0,1.25,-6.25,-53.75)">
                    <rect x="23" y="61" width="4" height="4" style="fill:none;stroke:rgb(25,133,255);stroke-width:0.8px;"/>
                </g>
                <g transform="matrix(1.25,0,0,1.25,-5,-53.75)">
                    <rect x="18" y="61" width="4" height="4" style="fill:none;stroke:rgb(25,133,255);stroke-width:0.8px;"/>
                </g>
            </g>
        </g>
    </g>
</svg>
